!!!COM:	la Rue, Pierre de
!!!CDT:	~1452///-1518/11/20
!!!OPR:	Missa de septem doloribus
!!!ONM:	4
!!!OTL:	Sanctus
!!!AGN:	Mass; Sanctus
!!!SCT:	Rue1014d
!!!SCA:	Rue1014d
!!!voices-OPR:	5
!!!voices:	5
**kern	**kern	**kern	**kern	**kern
*staff5	*staff4	*staff3	*staff2	*staff1
*Ivox	*Ivox	*Ivox	*Ivox	*Ivox
*I"Bassus	*I"Tenor	*I"Tenor	*I"Contra	*I"Discantus
*I'B	*I'T	*I'T	*I'C	*I'D
*>[A,B,C,D,E,F]	*>[A,B,C,D,E,F]	*>[A,B,C,D,E,F]	*>[A,B,C,D,E,F]	*>[A,B,C,D,E,F]
*>A	*>A	*>A	*>A	*>A
*clefF4	*clefGv2	*clefGv2	*clefGv2	*clefG2
*k[]	*k[]	*k[]	*k[]	*k[]
*M2/1	*M2/1	*M2/1	*M2/1	*M2/1
*met(C)	*met(C)	*met(C)	*met(C)	*met(C)
!!section: Sanctus
!!!OMD: Sanctus
=1-	=1-	=1-	=1-	=1-
0r	0r	0r	0d	0r
=2	=2	=2	=2	=2
0r	0r	0r	0f	0a
=3	=3	=3	=3	=3
0r	0r	0r	1e	0cc
.	.	.	1c	.
=4	=4	=4	=4	=4
0r	0r	0r	1d	1b
.	.	.	1B	1g
=5	=5	=5	=5	=5
0r	0r	0r	2A/	1a
.	.	.	1d	.
.	.	.	.	1f
.	.	.	4c\	.
.	.	.	4B\	.
=6	=6	=6	=6	=6
0r	0r	0r	2c\	2e/
.	.	.	2A/	1a
.	.	.	2c\	.
.	.	.	2d\	4g/
.	.	.	.	4f/
=7	=7	=7	=7	=7
0r	0r	0r	1.e	2g/
.	.	.	.	2e/
.	.	.	.	2g/
.	.	.	2c\	2a/
=8	=8	=8	=8	=8
0r	0r	0r	2d\	1b
.	.	.	1e	.
.	.	.	.	2g/
.	.	.	2c\	2a/
=9	=9	=9	=9	=9
0r	0r	0r	2d\	2b\
.	.	.	2e\	1cc
.	.	.	1f	.
.	.	.	.	4b\
.	.	.	.	4a/
=10	=10	=10	=10	=10
0r	0r	0r	0e	2g/
.	.	.	.	2c/
.	.	.	.	1c
=11	=11	=11	=11	=11
0r	0r	0r	1e	2r
.	.	.	.	2g/
.	.	.	2r	2a/
.	.	.	2c\	[2cc\
=12	=12	=12	=12	=12
0r	0r	0r	2d\	4cc\]
.	.	.	.	4b\
.	.	.	1f	4a/
.	.	.	.	4g/
.	.	.	.	1a
.	.	.	4e\	.
.	.	.	4d\	.
=13	=13	=13	=13	=13
0r	0r	0r	2e\	1g
.	.	.	2c\	.
.	.	.	2d\	2r
.	.	.	2B\	2g/
=14	=14	=14	=14	=14
0r	0r	0r	0A	2a/
.	.	.	.	2f/
.	.	.	.	2e/
.	.	.	.	[2a/
=15	=15	=15	=15	=15
0D	0r	0r	2r	4a/]
.	.	.	.	4g/
.	.	.	1d	4f/
.	.	.	.	4e/
.	.	.	.	2d/
.	.	.	[2f\	[2a/
=16	=16	=16	=16	=16
0F	0A	0r	2f\]	2a/]
.	.	.	4e\	1cc
.	.	.	4d\	.
.	.	.	1c	.
.	.	.	.	4b\
.	.	.	.	4a/
=17	=17	=17	=17	=17
1E	0c	0r	2r	0g
.	.	.	2.e\	.
1C	.	.	.	.
.	.	.	4f\	.
.	.	.	4g\	.
.	.	.	4e\	.
=18	=18	=18	=18	=18
1D	1B	0r	4f\	2r
.	.	.	4e\	.
.	.	.	4d\	2.b\
.	.	.	4c\	.
1BB	1G	.	1d	.
.	.	.	.	4cc\
.	.	.	.	4dd\
.	.	.	.	4b\
=19	=19	=19	=19	=19
[0AA	1A	[0A	2.c\	4cc\
.	.	.	.	4b\
.	.	.	.	4a/
.	.	.	4B\	4g/
.	1F	.	2c\	[1a
.	.	.	2d\	.
=20	=20	=20	=20	=20
0AA]	0E	0A_	2e\	2a/]
.	.	.	2.d\	4g/
.	.	.	.	4f/
.	.	.	.	1e
.	.	.	4c#i\	.
.	.	.	2c#i\	.
=21	=21	=21	=21	=21
2r	1D	0A]	0d	2.f/
1D	.	.	.	.
.	.	.	.	4g/
.	2r	.	.	1a
[2F\	[2A/	.	.	.
=22	=22	=22	=22	=22
2F\]	2A/]	[0c	0r	0r
4E\	1c	.	.	.
4D\	.	.	.	.
[1C	.	.	.	.
.	4B\	.	.	.
.	4A/	.	.	.
=23	=23	=23	=23	=23
1C]	0G	1c]	0r	0r
2r	.	1B	.	.
[2E\	.	.	.	.
=24	=24	=24	=24	=24
4E\]	1r	1G	0r	0r
4F\	.	.	.	.
4G\	.	.	.	.
4E\	.	.	.	.
4F\	2r	1A	.	.
4E\	.	.	.	.
4D\	2A/	.	.	.
4C/	.	.	.	.
=25	=25	=25	=25	=25
1D	4B\	1F	0r	0r
.	4c\	.	.	.
.	4d\	.	.	.
.	4B\	.	.	.
1C	4c\	1E	.	.
.	4B\	.	.	.
.	4A/	.	.	.
.	4G/	.	.	.
=26	=26	=26	=26	=26
2r	1A	0c	2r	0r
2.C/	.	.	2.e\	.
.	2.G/	.	.	.
4D\	.	.	4f\	.
4E\	.	.	4g\	.
4C/	4E/	.	4e\	.
=27	=27	=27	=27	=27
4D\	2F/	1B	4f\	2r
4C/	.	.	4e\	.
4BB/	1E	.	4d\	2.b\
4AA/	.	.	4c\	.
1BB	.	1G	1d	.
.	.	.	.	4cc\
.	2D/	.	.	4dd\
.	.	.	.	4b\
=28	=28	=28	=28	=28
1AA	1E	1A	0c	4cc\
.	.	.	.	4b\
.	.	.	.	4a/
.	.	.	.	4g/
1r	1r	1F	.	1a
=29	=29	=29	=29	=29
2r	2r	1E	2r	0g
2.C/	2E/	.	2.e\	.
.	2.G/	1c	.	.
4D\	.	.	4f\	.
4E\	.	.	4g\	.
4C/	4A/	.	4e\	.
=30	=30	=30	=30	=30
4D\	2F/	1B	4f\	2r
4C/	.	.	4e\	.
4BB/	1E	.	4d\	2.b\
4AA/	.	.	4c\	.
1BB	.	1G	1d	.
.	.	.	.	4cc\
.	2D/	.	.	4dd\
.	.	.	.	4b\
=31	=31	=31	=31	=31
1AA	1E	1A	2.c\	4cc\
.	.	.	.	4b\
.	.	.	.	4a/
.	.	.	4B\	4g/
1r	1A	1F	2c\	1a
.	.	.	2d\	.
=32	=32	=32	=32	=32
0r	2B\	[0E	[0e	1.g
.	2G/	.	.	.
.	2B\	.	.	.
.	[2c\	.	.	4e/
.	.	.	.	4f/
=33	=33	=33	=33	=33
0r	2c\]	0E]	0e]	4g/
.	.	.	.	4e/
.	4B\	.	.	1a
.	4A/	.	.	.
.	1B	.	.	.
.	.	.	.	2g#i/
=34	=34	=34	=34	=34
2r	2.A/	0r	2r	0a
2.AA/	.	.	2.c\	.
.	4G/	.	.	.
.	2F/	.	.	.
4BB/	.	.	4d\	.
4C/	2E/	.	4e\	.
4AA/	.	.	4c\	.
=35	=35	=35	=35	=35
4BB/	2G/	0r	4d\	0r
4AA/	.	.	4c\	.
4GG/	2.F/	.	4B\	.
4FF/	.	.	4A/	.
1GG	.	.	1B	.
.	4E/	.	.	.
.	2E/	.	.	.
=36	=36	=36	=36	=36
1FF	0F	0c	0A	2r
.	.	.	.	1a
[1FF	.	.	.	.
.	.	.	.	2a/
=37	=37	=37	=37	=37
2FF/]	1.F	1c	2r	1a
2FF/	.	.	1A	.
1FF	.	[1c	.	[1cc
.	2F/	.	2A/	.
=38	=38	=38	=38	=38
1AA	1C	1c]	1A	1cc]
1GG	1G	[1d	2B\	2.b\
.	.	.	4G/	.
.	.	.	4B\	4g/
=39	=39	=39	=39	=39
2FF/	0D	1d]	2A/	2a/
1GG	.	.	2.G/	1b
.	.	1d	.	.
.	.	.	4F/	.
2BB/	.	.	4D/	2g/
.	.	.	4E/	.
=40	=40	=40	=40	=40
2AA/	2r	2c\	2F/	2a/
2GG/	2D/	2B\	2G/	2b\
2AA/	2C/	1A	2E/	2.cc\
2FF/	2F/	.	2A/	.
.	.	.	.	4a/
=41	=41	=41	=41	=41
0GG	2.D/	0G	2.d\	2b\
.	.	.	.	2.dd\
.	4E/	.	4c\	.
.	2D/	.	4B\	.
.	.	.	4A/	4cc\
.	[2G/	.	2G/	4b\
.	.	.	.	4a/
=42	=42	=42	=42	=42
1GG	2G/]	1G	2d\	1g
.	4F/	.	2.d\	.
.	4E/	.	.	.
2.GG/	2D/	2r	.	1r
.	.	.	4c\	.
.	[2G/	[2d\	4B\	.
4AA/	.	.	4A/	.
=43	=43	=43	=43	=43
2BB/	4G/]	2d\]	0G	1r
.	4F/	.	.	.
2C/	2E/	1c	.	.
1GG	2D/	.	.	2r
.	2G/	2B\	.	[2dd\
=44	=44	=44	=44	=44
1AA	1C	1c	1r	2dd\]
.	.	.	.	2.cc\
1GG	1G	1d	1d	.
.	.	.	.	4b\
.	.	.	.	2b\
=45	=45	=45	=45	=45
1C	2.E/	2r	1e	2.cc\
.	.	2c\	.	.
.	4F/	.	.	4b\
1r	2G/	2B\	2e\	2g/
.	2A/	2A/	[2e\	2cc\
=46	=46	=46	=46	=46
0r	2E/	2G/	2e\]	2b\
.	2F/	2c\	2A/	2a/
.	4G/	4B\	2B\	2g/
.	2G/	4G/	.	.
.	.	2A/	2c\	2cc\
.	4F/	.	.	.
=47	=47	=47	=47	=47
0r	2G/	2G/	4r	4b\
.	.	.	4e\	4g/
.	4r	2c\	2f\	2a/
.	4F/	.	.	.
.	2G/	2B\	2e\	2g/
.	2A/	2A/	[2f\	2cc\
=48	=48	=48	=48	=48
1r	2D/	4d\	4f\]	4b\
.	.	4c\	4e\	4a/
.	2F/	4B\	4c\	1a
.	.	4A/	4d\	.
2r	1E	1B	1e	.
2E\	.	.	.	2g#i/
=49	=49	=49	=49	=49
2F\	2r	[0A	1r	[0a
4D\	2F/	.	.	.
2D\	.	.	.	.
.	2E/	.	2r	.
4C/	.	.	.	.
2D\	2D/	.	2f\	.
=50	=50	=50	=50	=50
2AA/	2C/	0A_	2e\	0a]
2D\	2F/	.	2d\	.
2r	4E/	.	2c\	.
.	4C/	.	.	.
2D\	2D/	.	2f\	.
=51	=51	=51	=51	=51
2AA/	2C/	0A_	4e\	2r
.	.	.	4c\	.
4D\	2.F/	.	2d\	2a/
4E\	.	.	.	.
4F\	.	.	2c\	2.a/
4G\	4E/	.	.	.
2A\	2D/	.	2f\	.
.	.	.	.	4b\
=52	=52	=52	=52	=52
0AA	2C/	0A]	4e\	2cc\
.	.	.	4d\	.
.	2F/	.	1d	2.a/
.	1E	.	.	.
.	.	.	.	4g/
.	.	.	2c#i\	4f/
.	.	.	.	4e/
=53	=53	=53	=53	=53
0Dl	0Dl	0Al	0dl	0fl
!!LO:LB:i:g=z
=54||	=54||	=54||	=54||	=54||
*>B	*>B	*>B	*>B	*>B
*clefF4	*clefGv2	*clefGv2	*clefGv2	*clefG2
*k[]	*k[]	*k[]	*k[]	*k[]
*M2/1	*M2/1	*M2/1	*M2/1	*M2/1
*met(C2)	*met(C2)	*met(C2)	*met(C2)	*met(C2)
!!section: Pleni sunt celi
!!!OMD: Pleni sunt celi
0r	0r	0r	0d	1r
.	.	.	.	1d
=55.	=55.	=55.	=55.	=55.
0r	0r	0r	1d	2f/
.	.	.	.	2g/
.	.	.	1d	2a/
.	.	.	.	[2b\
=56	=56	=56	=56	=56
0r	0r	0r	1.e	2b\]
.	.	.	.	1g
.	.	.	2c\	[2cc\
=57.	=57.	=57.	=57.	=57.
0r	0r	0r	0c	4cc\]
.	.	.	.	4b\
.	.	.	.	4a/
.	.	.	.	4g/
.	.	.	.	2a/
.	.	.	.	4g/
.	.	.	.	4f/
=58	=58	=58	=58	=58
0r	0r	0r	2r	2e/
.	.	.	2.e\	2.g/
.	.	.	4d\	4f/
.	.	.	4c\	4e/
.	.	.	4B\	4d/
=59.	=59.	=59.	=59.	=59.
0r	0r	0r	2c\	2e/
.	.	.	4B\	4d/
.	.	.	4A/	4c/
.	.	.	2G/	2B/
.	.	.	[2A/	2A/
=60	=60	=60	=60	=60
0r	0r	0r	2A/]	1B
.	.	.	2G#i/	.
.	.	.	2A/	2r
.	.	.	[2c\	2g/
=61.	=61.	=61.	=61.	=61.
0r	0r	0r	4c\]	2a/
.	.	.	4B\	.
.	.	.	4A/	1cc
.	.	.	4G/	.
.	.	.	2A/	.
.	.	.	4G/	4b\
.	.	.	4F/	4a/
=62	=62	=62	=62	=62
0r	0r	0r	1E	[0g
.	.	.	2r	.
.	.	.	2B\	.
=63.	=63.	=63.	=63.	=63.
0r	0r	0r	2c\	0g]
.	.	.	1e	.
.	.	.	4d\	.
.	.	.	4c\	.
=64	=64	=64	=64	=64
0r	0r	0r	2B\	2r
.	.	.	1e	1cc
.	.	.	2d\	2b\
=65.	=65.	=65.	=65.	=65.
0r	0r	0r	2e\	2cc\
.	.	.	4d\	4b\
.	.	.	4c\	4a/
.	.	.	1B	4g/
.	.	.	.	4f/
.	.	.	.	4e/
.	.	.	.	4d/
=66	=66	=66	=66	=66
0r	0r	0r	2r	2c/
.	.	.	1e	1cc
.	.	.	2d\	2b\
=67.	=67.	=67.	=67.	=67.
0r	0r	0r	2e\	2cc\
.	.	.	4d\	4b\
.	.	.	4c\	4a/
.	.	.	4B\	1g
.	.	.	4A/	.
.	.	.	4G/	.
.	.	.	4F/	.
=68	=68	=68	=68	=68
0r	0r	0r	1E	2r
.	.	.	.	1cc
.	.	.	2r	.
.	.	.	[2e\	2b\
=69.	=69.	=69.	=69.	=69.
0r	0r	0r	2e\]	2cc\
.	.	.	2d\	4b\
.	.	.	.	4a/
.	.	.	2e\	4g/
.	.	.	.	4a/
.	.	.	4d\	4b\
.	.	.	4c\	4cc\
=70	=70	=70	=70	=70
0r	0r	0r	4d\	2b\
.	.	.	4c\	.
.	.	.	4B\	1a
.	.	.	4A/	.
.	.	.	1B	.
.	.	.	.	2g#i/
=71.	=71.	=71.	=71.	=71.
0r	0r	0r	1A	[0a
.	.	.	2r	.
.	.	.	[2f\	.
=72	=72	=72	=72	=72
0r	0r	0r	2f\]	0a]
.	.	.	4e\	.
.	.	.	4d\	.
.	.	.	2c\	.
.	.	.	[2d\	.
=73.	=73.	=73.	=73.	=73.
0r	0r	0r	4d\]	1r
.	.	.	4c\	.
.	.	.	2c\	.
.	.	.	2d\	2r
.	.	.	2e\	[2cc\
=74	=74	=74	=74	=74
0r	0r	0r	1c	2cc\]
.	.	.	.	4b\
.	.	.	.	4a/
.	.	.	2r	2g/
.	.	.	2c\	[2a/
=75.	=75.	=75.	=75.	=75.
0r	0r	0r	2d\	4a/]
.	.	.	.	4g/
.	.	.	2e\	2g/
.	.	.	2f\	2a/
.	.	.	2d\	2b\
=76	=76	=76	=76	=76
0r	0r	0r	2e\	1g
.	.	.	4d\	.
.	.	.	4c\	.
.	.	.	2B\	2r
.	.	.	[2c\	2g/
=77.	=77.	=77.	=77.	=77.
0r	0r	0r	4c\]	2a/
.	.	.	4B\	.
.	.	.	4A/	2b\
.	.	.	4G/	.
.	.	.	1A	2cc\
.	.	.	.	2a/
=78	=78	=78	=78	=78
0r	0r	0r	0G	2b\
.	.	.	.	2.g/
.	.	.	.	4f/
.	.	.	.	4e/
.	.	.	.	4d/
=79.	=79.	=79.	=79.	=79.
0r	0r	0r	2r	1e
.	.	.	2.G/	.
.	.	.	.	1d
.	.	.	4F/	.
.	.	.	4G/	.
.	.	.	4A/	.
=80	=80	=80	=80	=80
0r	0r	0r	4B\	2r
.	.	.	4A/	.
.	.	.	4B\	2.d/
.	.	.	4c\	.
.	.	.	2d\	.
.	.	.	.	4c/
.	.	.	2G/	4d/
.	.	.	.	4e/
=81.	=81.	=81.	=81.	=81.
0r	0r	0r	2r	4f/
.	.	.	.	4e/
.	.	.	2.d\	4f/
.	.	.	.	4g/
.	.	.	.	2a/
.	.	.	4c\	.
.	.	.	4d\	2d/
.	.	.	4e\	.
=82	=82	=82	=82	=82
0r	0r	0r	2.f\	2r
.	.	.	.	2.a/
.	.	.	4e\	.
.	.	.	2d\	.
.	.	.	.	4g/
.	.	.	[2c\	4a/
.	.	.	.	4b\
=83.	=83.	=83.	=83.	=83.
0r	0r	0r	2c\]	2.cc\
.	.	.	1f	.
.	.	.	.	4b\
.	.	.	.	2a/
.	.	.	2e\	2g/
=84	=84	=84	=84	=84
0r	0r	0r	2d\	2r
.	.	.	4c\	1cc
.	.	.	4B\	.
.	.	.	2A/	.
.	.	.	2d\	2b\
=85.	=85.	=85.	=85.	=85.
0r	0r	0r	2c\	2a/
.	.	.	4B\	4g/
.	.	.	4A/	4f/
.	.	.	1G	2e/
.	.	.	.	2g/
=86	=86	=86	=86	=86
0r	0r	0r	2r	2f/
.	.	.	2G/	4e/
.	.	.	.	4d/
.	.	.	2.A/	2c/
.	.	.	.	[2e/
.	.	.	4F/	.
=87.	=87.	=87.	=87.	=87.
0r	0r	0r	4G/	4e/]
.	.	.	4F/	4d/
.	.	.	4E/	1d
.	.	.	4D/	.
.	.	.	1E	.
.	.	.	.	2c#i/
=88	=88	=88	=88	=88
0r	0r	0r	0Dl	0dl
!!LO:LB:i:g=z
=89||	=89||	=89||	=89||	=89||
*>C	*>C	*>C	*>C	*>C
*clefF4	*clefGv2	*clefGv2	*clefGv2	*clefG2
*k[]	*k[]	*k[]	*k[]	*k[]
*M3/1	*M3/1	*M3/1	*M3/1	*M3/1
*met(C3)	*met(C3)	*met(C3)	*met(C3)	*met(C3)
!!*MM400	*MM400	*MM400	*MM400	*MM400
!!comment: This is the CutC3-type of C3. Tempo around 100.
!!section: Osanna I
!!!OMD: Osanna I
0.r	1D	[0.d	0.r	1.d
.	1.D	.	.	.
.	.	.	.	2e/
.	.	.	.	2f/
.	2E/	.	.	2g/
=90	=90	=90	=90	=90
0.r	1F	1d]	1r	1a
.	0G	0d	1r	2b\
.	.	.	.	2cc\
.	.	.	1d	2dd\
.	.	.	.	2b\
=91	=91	=91	=91	=91
1.AA	1.C	0c	0e	1.cc
2BB/	2D/	.	.	2b\
2C/	2E/	1c	[1e	1a
2D\	2F/	.	.	.
=92	=92	=92	=92	=92
1E	1G	1B	1e]	1g
2F\	0D	0A	0d	0a
2G\	.	.	.	.
2A\	.	.	.	.
2F\	.	.	.	.
=93	=93	=93	=93	=93
0G	0.r	1G	1.B	1.d
.	.	0d	.	.
.	.	.	2c\	2e/
2F\	.	.	2d\	2f/
2E\	.	.	2e\	2g/
=94	=94	=94	=94	=94
0D	0.r	0d	0f	1a
.	.	.	.	2b\
.	.	.	.	2cc\
1r	.	1d	1d	2dd\
.	.	.	.	2b\
=95	=95	=95	=95	=95
1.AA	1.C	0c	0e	1.cc
2BB/	2D/	.	.	2b\
2C/	2E/	1c	[1e	1a
2D\	2F/	.	.	.
=96	=96	=96	=96	=96
1E	1G	1B	1e]	1g
2F\	0D	0A	0d	0a
2G\	.	.	.	.
2A\	.	.	.	.
2F\	.	.	.	.
=97	=97	=97	=97	=97
0.G	0d	0.G	0.B	1.b
.	.	.	.	2cc\
.	1d	.	.	2dd\
.	.	.	.	2b\
=98	=98	=98	=98	=98
0.r	1c	0.r	0.r	1.cc
.	2A/	.	.	.
.	2B\	.	.	2b\
.	2c\	.	.	1a
.	2A/	.	.	.
=99	=99	=99	=99	=99
1r	1B	0.r	0d	1g
1r	0A	.	.	2f/
.	.	.	.	2g/
1D	.	.	1d	2a/
.	.	.	.	2f/
=100	=100	=100	=100	=100
1.E	0.G	1.G	1B	0.g
.	.	.	0e	.
2F\	.	2A/	.	.
2G\	.	2B\	.	.
2E\	.	2G/	.	.
=101	=101	=101	=101	=101
1F	0.r	1c	1A	0.r
0D	.	2B\	2d\	.
.	.	2c\	2e\	.
.	.	2d\	2f\	.
.	.	2B\	2d\	.
=102	=102	=102	=102	=102
0.C	0G	0.c	0.e	0g
.	1G	.	.	1g
=103	=103	=103	=103	=103
0.r	1c	0.r	0.r	1.a
.	2B\	.	.	.
.	2c\	.	.	2g/
.	2d\	.	.	1f
.	2B\	.	.	.
=104	=104	=104	=104	=104
0.r	1c	0A	1r	1e
.	0F	.	1r	0a
.	.	1A	1d	.
=105	=105	=105	=105	=105
0.r	0.E	1B	1e	1g
.	.	2G/	2c\	2e/
.	.	2A/	2d\	2f/
.	.	2B\	2e\	2g/
.	.	2G/	2c\	2e/
=106	=106	=106	=106	=106
0.r	1r	1A	1.d	1f
.	1r	0F	.	0a
.	.	.	2e\	.
.	1A	.	2f\	.
.	.	.	2d\	.
=107	=107	=107	=107	=107
1.C	0c	0.E	1e	1g
.	.	.	2c\	2a/
2BB/	.	.	2d\	2b\
1AA	1c	.	2e\	2cc\
.	.	.	2c\	2a/
=108	=108	=108	=108	=108
1GG	1.B-i	1r	0.d	1b-i
0BB-	.	1r	.	0dd
.	2c\	.	.	.
.	2d\	1G	.	.
.	2B-i\	.	.	.
=109	=109	=109	=109	=109
1AA	1c	1C	0.r	1cc
0GG	2G/	2E/	.	0b-i
.	2A/	2F/	.	.
.	2B-i\	2G/	.	.
.	2G/	2E/	.	.
=110	=110	=110	=110	=110
1FF	0.A	1F	0c	1.a
1.F	.	1F	.	.
.	.	.	.	2g/
.	.	1F	1c	1f
2E\	.	.	.	.
=111	=111	=111	=111	=111
1C	0.r	1G	1c	1e
0BB-	.	0D	2d\	1f
.	.	.	2e\	.
.	.	.	2f\	1d
.	.	.	2d\	.
=112	=112	=112	=112	=112
0.AA	0.r	1.A	1.e	1c
.	.	.	.	1.cc
.	.	2B\	2d\	.
.	.	1c	1e	.
.	.	.	.	2b\
=113	=113	=113	=113	=113
1r	0.r	1d	1f	1.a
1r	.	0B	1d	.
.	.	.	.	2g#i/
1E	.	.	1e	1g#i
=114	=114	=114	=114	=114
1F	1r	[0.A	1c	0.a
2D\	1r	.	1.f	.
2E\	.	.	.	.
2F\	1A	.	.	.
2D\	.	.	2e\	.
=115	=115	=115	=115	=115
1A	1.c	0.A]	2c\	0.r
.	.	.	2d\	.
2AA/	.	.	0e	.
2BB/	2B\	.	.	.
2C/	2A/	.	.	.
2AA/	2G/	.	.	.
=116	=116	=116	=116	=116
1D	1F	0.r	1d	1r
0AA	0E	.	2c\	1r
.	.	.	2d\	.
.	.	.	2e\	1e
.	.	.	2c\	.
=117	=117	=117	=117	=117
0.D	0D	0A	0.d	1f
.	.	.	.	2d/
.	.	.	.	2e/
.	1A	[1A	.	2f/
.	.	.	.	2d/
=118	=118	=118	=118	=118
0.r	0c	1A]	0.r	1a
.	.	2F/	.	2A/
.	.	2G/	.	2B/
.	1A	2A/	.	2c/
.	.	2F/	.	2A/
=119	=119	=119	=119	=119
0.r	1B	1G	1r	1d
.	2G/	0E	1r	2c/
.	2A/	.	.	2d/
.	2B\	.	1e	2e/
.	2G/	.	.	2c/
=120	=120	=120	=120	=120
0D	0A	0D	1f	1d
.	.	.	2d\	1a
.	.	.	2e\	.
1D	1r	1A	2f\	1f
.	.	.	2d\	.
=121	=121	=121	=121	=121
0C	0E	1.c	1e	1g
.	.	.	0c	2e/
.	.	2B\	.	2f/
1C	1E	1G	.	2g/
.	.	.	.	2e/
=122	=122	=122	=122	=122
1FF	1C	1A	1c	1f
2C/	0E	2E/	0c	0e
2D\	.	2F/	.	.
2E\	.	2G/	.	.
2C/	.	2E/	.	.
=123	=123	=123	=123	=123
1D	1D	1F	1.A	1d
0AA	0A	0E	.	2c/
.	.	.	2B\	2d/
.	.	.	2c\	2e/
.	.	.	2A/	2c/
=124	=124	=124	=124	=124
*^	*	*	*	*
[0.DDl\	[0.Dl/	[0.Fl	[0.Dl	1B-i	[0.dl
.	.	.	.	0A	.
=125	=125	=125	=125	=125	=125
0.DD]yy\	0.D]/yy	0.F]	0.D]	0.Al	0.d]
*v	*v	*	*	*	*
!!LO:LB:i:g=z
=126||	=126||	=126||	=126||	=126||
*>D	*>D	*>D	*>D	*>D
*clefF4	*clefGv2	*clefGv2	*clefGv2	*clefG2
*k[]	*k[]	*k[]	*k[]	*k[]
*M2/1	*M2/1	*M2/1	*M2/1	*M2/1
*met(C2)	*met(C2)	*met(C2)	*met(C2)	*met(C2)
!!section: Benedictus
!!!OMD: Benedictus
1.A	0r	0r	1.A	0r
2G\	.	.	2B\	.
=127.	=127.	=127.	=127.	=127.
1F	0r	0r	2c\	0r
.	.	.	2.d\	.
1E	.	.	.	.
.	.	.	4c\	.
.	.	.	2c\	.
=128	=128	=128	=128	=128
1.D	0r	0r	1d	[0a
.	.	.	2d\	.
2E\	.	.	[2c\	.
=129.	=129.	=129.	=129.	=129.
2F\	0r	0r	4c\]	0a]
.	.	.	4B\	.
2.G\	.	.	4A/	.
.	.	.	4G/	.
.	.	.	1A	.
4F#i\	.	.	.	.
2F#i\	.	.	.	.
=130	=130	=130	=130	=130
1.G	0r	0r	2G/	0b
.	.	.	1d	.
2E\	.	.	[2e\	.
=131.	=131.	=131.	=131.	=131.
0E	0r	0r	2e\]	0g
.	.	.	4d\	.
.	.	.	4c\	.
.	.	.	1B	.
=132	=132	=132	=132	=132
0r	[0A	0r	2A/	1.a
.	.	.	1f	.
.	.	.	4e\	4g/
.	.	.	4d\	4f/
=133.	=133.	=133.	=133.	=133.
0r	0A]	0r	2e\	4g/
.	.	.	.	4f/
.	.	.	2.d\	4e/
.	.	.	.	4d/
.	.	.	.	1e
.	.	.	4c#i\	.
.	.	.	2c#i\	.
=134	=134	=134	=134	=134
2r	0B	0r	0d	2d/
2.G\	.	.	.	1g
4F\	.	.	.	.
2D\	.	.	.	2f/
=135.	=135.	=135.	=135.	=135.
2E\	0G	0r	0r	2g/
4D\	.	.	.	4f/
4C/	.	.	.	4e/
1BB	.	.	.	1d
=136	=136	=136	=136	=136
[0AA	1.A	0r	[0e	[0c\
.	4G/	.	.	.
.	4F/	.	.	.
=137.	=137.	=137.	=137.	=137.
0AA]	4G/	0r	0e]	0c]\
.	4F/	.	.	.
.	4E/	.	.	.
.	4D/	.	.	.
.	1E	.	.	.
=138	=138	=138	=138	=138
0r	1D	0r	0f	0r
.	2.D/	.	.	.
.	4E/	.	.	.
=139.	=139.	=139.	=139.	=139.
0r	2F/	0r	0d	0r
.	2.G/	.	.	.
.	4F/	.	.	.
.	4E/	.	.	.
.	4D/	.	.	.
=140	=140	=140	=140	=140
[0E	0C	0r	1e	1r
.	.	.	2e\	2.e/
.	.	.	[2c\	.
.	.	.	.	4f/
=141.	=141.	=141.	=141.	=141.
0E]	0r	0r	2c\]	2g/
.	.	.	4B\	1a
.	.	.	4A/	.
.	.	.	1B	.
.	.	.	.	2g#i/
=142	=142	=142	=142	=142
0F	1.D	0r	1A	0a
.	.	.	[1f	.
.	2E/	.	.	.
=143.	=143.	=143.	=143.	=143.
0D	2F/	0r	1f]	0a
.	2G/	.	.	.
.	2.A/	.	1f	.
.	4B\	.	.	.
=144	=144	=144	=144	=144
1E	2c\	0r	0e	2.g/
.	1B	.	.	.
.	.	.	.	4a/
2E\	.	.	.	2b\
[2C/	[2E/	.	.	2cc\
=145.	=145.	=145.	=145.	=145.
2C/]	2E/]	0r	1e	1a
4BB/	1A	.	.	.
4AA/	.	.	.	.
1BB	.	.	2.d\	1dd
.	2G#i/	.	.	.
.	.	.	4e\	.
=146	=146	=146	=146	=146
[0AA	2A/	0r	2f\	2.cc\
.	1c	.	1e	.
.	.	.	.	4b\
.	.	.	.	2a/
.	2B\	.	2d\	2g/
=147.	=147.	=147.	=147.	=147.
0AA_	2A/	0r	2c\	2f/
.	4G/	.	4B\	4e/
.	4F/	.	4A/	4d/
.	2.A/	.	2c\	2f/
.	.	.	[2A/	[2e/
.	4G/	.	.	.
=148	=148	=148	=148	=148
0AA]	2F/	0r	4A/]	2e/]
.	.	.	4G/	.
.	2D/	.	2F/	2.d/
.	1E	.	2E/	.
.	.	.	.	4c#i/
.	.	.	[2A/	2c#i/
=149.	=149.	=149.	=149.	=149.
[0Dl	[0Dl	0r	2A/]	[0dl
.	.	.	2F/	.
.	.	.	1B-i	.
=150	=150	=150	=150	=150
0D]	0D]	0r	0Al	0d]
!!LO:LB:i:g=z
=151||	=151||	=151||	=151||	=151||
*>E	*>E	*>E	*>E	*>E
*clefF4	*clefGv2	*clefGv2	*clefGv2	*clefG2
*k[]	*k[]	*k[]	*k[]	*k[]
*M2/1	*M2/1	*M2/1	*M2/1	*M2/1
*met(C2)	*met(C2)	*met(C2)	*met(C2)	*met(C2)
!!section: In nomine Domini
!!!OMD: In nomine Domini
0r	1A	0r	0r	0r
.	1c	.	.	.
=152.	=152.	=152.	=152.	=152.
1D	1d	0r	0r	0r
1F	1A	.	.	.
=153	=153	=153	=153	=153
1G	2r	0r	0r	0r
.	2.d\	.	.	.
1D	.	.	.	.
.	4c\	.	.	.
.	4B\	.	.	.
.	4A/	.	.	.
=154.	=154.	=154.	=154.	=154.
2r	2B\	0r	0r	0r
1G	2G/	.	.	.
.	1A	.	.	.
2F\	.	.	.	.
=155	=155	=155	=155	=155
2.G\	1G	0r	0r	0r
4F\	.	.	.	.
4E\	2r	.	.	.
4D\	.	.	.	.
[2E\	[2c\	.	.	.
=156.	=156.	=156.	=156.	=156.
2E\]	2c\]	0r	0r	0r
4D\	4B\	.	.	.
4C/	4A/	.	.	.
2D\	2B\	.	.	.
2E\	2G/	.	.	.
=157	=157	=157	=157	=157
2AA/	1A	0r	0r	0r
1D	.	.	.	.
.	2D/	.	.	.
2GG/	[2G/	.	.	.
=158.	=158.	=158.	=158.	=158.
2C/	4G/]	0r	0r	0r
.	4A/	.	.	.
2D\	2B\	.	.	.
2E\	2c\	.	.	.
2F\	[2A/	.	.	.
=159	=159	=159	=159	=159
1D	2A/]	0r	0r	0r
.	2.d\	.	.	.
2.F\	.	.	.	.
.	4c\	.	.	.
.	4B\	.	.	.
4E\	4A/	.	.	.
=160.	=160.	=160.	=160.	=160.
4D\	2B\	0r	0r	0r
4C/	.	.	.	.
4BB/	1A	.	.	.
4AA/	.	.	.	.
1BB	.	.	.	.
.	2G#i/	.	.	.
=161	=161	=161	=161	=161
0AA	1A	0r	0r	0r
.	2r	.	.	.
.	[2E/	.	.	.
=162.	=162.	=162.	=162.	=162.
2r	2E/]	0r	0r	0r
2AA/	2F/	.	.	.
2BB/	2D/	.	.	.
2GG/	[2E/	.	.	.
=163	=163	=163	=163	=163
2AA/	4E/]	0r	0r	0r
.	4F/	.	.	.
2BB/	2.G/	.	.	.
2.C/	.	.	.	.
.	4F/	.	.	.
.	4E/	.	.	.
4BB/	4D/	.	.	.
=164.	=164.	=164.	=164.	=164.
2AA/	2C/	0r	0r	0r
2GG/	2G/	.	.	.
1FF	2A/	.	.	.
.	2c\	.	.	.
=165	=165	=165	=165	=165
2r	2B\	0r	0r	0r
2C/	1A	.	.	.
2D\	.	.	.	.
2F\	2F/	.	.	.
=166.	=166.	=166.	=166.	=166.
2E\	4G/	0r	0r	0r
.	4F/	.	.	.
1D	4E/	.	.	.
.	4D/	.	.	.
.	1E	.	.	.
2C#i/	.	.	.	.
=167	=167	=167	=167	=167
1D	2D/	0r	0r	0r
.	2F/	.	.	.
2r	2G/	.	.	.
2D\	[2A/	.	.	.
=168.	=168.	=168.	=168.	=168.
2F\	2A/]	0r	0r	0r
2G\	2B\	.	.	.
2.A\	2c\	.	.	.
.	[2A/	.	.	.
4G\	.	.	.	.
=169	=169	=169	=169	=169
2F\	2A/]	0r	0r	0r
4E\	2.d\	.	.	.
4D\	.	.	.	.
1E	.	.	.	.
.	4c#i\	.	.	.
.	2c#i\	.	.	.
=170.	=170.	=170.	=170.	=170.
0Dl	0dl	0r	0r	0r
!!LO:LB:i:g=z
=171||	=171||	=171||	=171||	=171||
*>F	*>F	*>F	*>F	*>F
*clefF4	*clefGv2	*clefGv2	*clefGv2	*clefG2
*k[]	*k[]	*k[]	*k[]	*k[]
*M2/1	*M2/1	*M2/1	*M2/1	*M2/1
*met(C2)	*met(C2)	*met(C2)	*met(C2)	*met(C2)
!!section: Osanna II
!!!OMD: Osanna II
0D	0A	0F	0d	0a
=172.	=172.	=172.	=172.	=172.
1GG	1G	1G	[0d	1b
1D	1F	1A	.	1a
=173	=173	=173	=173	=173
0GG	0G	0B-i	1d]	0dd
.	.	.	1G	.
=174.	=174.	=174.	=174.	=174.
[0AA	[0E	[0A	2c\	[0cc
.	.	.	2A/	.
.	.	.	2.c\	.
.	.	.	4d\	.
=175	=175	=175	=175	=175
0AA;]	0E;]	0A;]	0e;	0cc;]
=176.	=176.	=176.	=176.	=176.
1r	1r	1r	1r	1r
1AA	1E	1A	1e	1cc
=177	=177	=177	=177	=177
1FF	1F	1A	1A	1cc
1GG	2D/	1G	[1d	1b
.	2E/	.	.	.
=178.	=178.	=178.	=178.	=178.
0D	2F/	0F	2d\]	0a
.	2G/	.	2e\	.
.	1A	.	2f\	.
.	.	.	4e\	.
.	.	.	4d\	.
=179	=179	=179	=179	=179
[0AA	[0A	[0E	1c#i	[0a
.	.	.	1c#i	.
=180.	=180.	=180.	=180.	=180.
0AA;]	0A;]	0E;]	0c#i;	0a;]
=181	=181	=181	=181	=181
*	*	*	*	*^
[0Dl	[0Al	0F	[0dl	[0fl\	[0al/
=182.	=182.	=182.	=182.	=182.	=182.
0D]	0A]	0Fl	0d]	0f]yy\	0a]yy/
*	*	*	*	*v	*v
==	==	==	==	==
*-	*-	*-	*-	*-
!!!RDF**kern: l=long note in original notation
!!!RDF**kern: i=editorial accidental
!!!ENC:	Chris Gage 05-23-2013
!!!END:	2013/08/04/
!!!EED:	Jesse Rodin
!!!EEV:	2013/12/30/
!!!ONB:	Translated from MusicXML and edited on 2013/12/30/ by Craig Sapp
!!muse2ps: T^@{OPR}^u^@{ONM}{. }@{OTL}^C^@{COM}^i2I150v85,85,85,85,130Q8c110
